X:1
T:Title
%%score ( 1 2 ) { 3 | 4 }
L:1/8
Q:1/4=90
M:2/4
K:Db
V:1 treble nm="Grand Piano, Soprano"
V:2 treble 
V:3 treble nm="Choir Pad, Peaceful Be"
V:4 bass 
V:1
 [DF][EG] [FA][FA] | [F=G][FA] [_GB][FA] | z2 c2- | c4 | [CE][DF] [EG][EG] | [=DF][EG] [Gc][GB] | %6
w: By~George~Coles~Stebbins,~1901 * * *||||||
 z2 A2- | A4 | [DF][EG] [FA][FA] | [_F=G][=FA] [_GB][FA] | [DF][FA] [Fd][Fd] | [Ec][Fd] [Ge][Fd] | %12
w: ||||||
 [FA][F=A] [GB][GB] | [_Fc][FB] [=FA][Ad] | z2 A2- | A4- | A4 |] %17
w: |||||
V:2
 x4 | x4 | [DF]>[Fd] G2 | G>G G2 | x4 | x4 | [CE]>[GB] F2 | G>G F2 | x4 | x4 | x4 | x4 | x4 | x4 | %14
 [GA]>E F2 | G>E F2- | F4 |] %17
V:3
 A,A, DD | DD DD | A,>A, A,2 | C>E A,2 | A,A, A,A, | A,A, A,A, | A,>C D2 | B,>B, A,2 | %8
 A,A,[K:treble] DD | DD DD | A,A, A,A, | A,A, A,A, | DD DD | DD D2 | C>C D2 | B,>C D2- | D4 |] %17
V:4
 D,D, D,D, | D,D, D,D, | D,>D, E,2 | A,>A, z2 | A,,A,, A,,A,, | A,,A,, A,,A,, | A,,>A,, D,2 | %7
 D,>D, D,2 | D,D, D,D, | D,D, D,D, | D,D, D,D, | D,D, D,D, | D,D, G,G, | =G,G, A,F, | E,>A, D,2- | %15
 D,4- | D,4 |] %17

